X: 18503
T: I Buried My Wife And Danced On Her Grave
R: jig
M: 6/8
K: Dmixolydian
|:DED F2G|AdB cAF|~G2G cAG|~F3 GEA|
DED F2G|AdB cAF|~G2G cAG|1 AFD D2 A|2 AFD DFA:|
|:d2e ~f2d|faf gfd|d2e fed|d^cA d^cA|
d2e ~f3|~a3 gfe|d^cA BAG|1 AFD DFA|2 AFD D3:|

